X: 25056
T: Maids Of Ardnaree, The
R: reel
M: 4/4
K: Dmajor
f2fe defd|~g2gf gbag|fddc defd|ecAF Gceg|
f2fe defd|~g2 gf gbag|fddc defd|ecAF GBAF||
D2AD FGAF|G2(3ABc BGAG|FBEB DEFA|dAFA GBAF|
D2AD FGAF|G2(3ABc BGAG|FBEB DEFA|dBGB Aceg||

